X:1
T:The Roaring Barmaid
I:D'après "The Session", ce morceau est parfois appelé à tort "The
I:Butlers of Glen Avenue" (Lunasa, McGoldrick, ...)
L:1/8
M:6/8
C:Anthony Sullivan
R:jig
D:Lunasa "Otherworld"
D:Michael McGoldrick "Fused"
D:Danu "Think before you think"
K:G
|: GFG EGD | GFG EGD | GFG BGG | dGG BdB |
   GFG EGD | GFG EGD | GAB deg | deg edB :|
|: deg b2b- | bab deg | b2b- bag | edB deg |
   b2b- bag | agg bgg | agg efg | deg edB :|
